X:1
T:New Year's Polka
T:New Year's Polka
T:Charles d'Albert
T:Public Domain - https://imslp.org/wiki/New_Year%27s_Polka_(Albert%2C_Charles_d%27)
T:Public Domain - https://imslp.org/wiki/New_Year%27s_Polka_(Albert%2C_Charles_d%27)
C:Charles d'Albert
Z:Public Domain - https://imslp.org/wiki/New_Year%27s_Polka_(Albert%2C_Charles_d%27)
%%score { 1 | ( 2 3 ) }
L:1/8
Q:1/4=110
M:2/4
K:C
V:1 treble nm="Piano" snm="Pno."
V:2 bass 
V:3 bass 
V:1
!f! C/C/C C/C/C | C (Gg)g |]!p! .!2!g(3(g/a/g/) fd | !2!ec{/d} !3!c/B/c/e/ | dB{/c} B/^A/B/d/ | %5
 ec{/d} c/B/c/e/ | .g(3(g/a/g/) fd | ec{/d} !3!c/B/c/!3!e/ | dB{/c} B/^A/B/d/ | ccc z :: %10
!ff! c(3(c/e/g/) c'>b | .b/.a/{/b}.a/.^g/ a2 | B(3(B/d/f/) b>a | .a/.g/{/a}.g/.^f/ g2 | %14
 c(3(c/e/g/) c'>b | .b/.a/{/b}.a/.^g/ a2 | B(3(B/d/f/) a>B | ccc z :: %18
[K:F]!p!{FAc} f!2!c{/d} c/=B/"^"c/_d/ | ed{/e} d/^c/d/_B/ | be{/f} e/^d/e/c/ | gf{/g} f/e/f/c/ | %22
[K:F] fc{/d} c/=B/c/_d/ | ed{/e} d/^c/d/_B/ | be{/f} e/^d/e/c/ |1 fff z :|2 fff f |] %27
[K:C]!p! .g(3(g/a/g/) fd | ec{/d} c/B/c/e/ | dB{/c} B/^A/B/d/ | ec{/d} c/B/c/e/ | .g(3(g/a/g/) fd | %32
 ec{/d} c/B/c/e/ | dB{/c} B/B/B/d/ | ccc z |]!ff! c(3(c/e/g/) c'>b | .b/.a/{/b}.a/.^g/ a2 | %37
 B(3(B/d/f/) b>a | .a/.g/{/a}.g/.^f/ g2 | c(3(c/e/g/) c'>b | .b/.a/{/b}.a/.^g/ a2 | %41
 B(3(B/d/f/) a>B | ccc z!fine!!D.C.! |] %43
V:2
 [E,G,]/[E,G,]/[E,G,] [F,_A,]/[F,A,]/[F,A,] | [E,G,] z2 z |] G,,[G,B,F][G,B,F][G,B,F] | %3
 C,[G,CE][G,CE][G,CE] | G,,[G,B,F][G,B,F][G,B,F] | C,[G,CE][G,CE][G,CE] | %6
 G,,[G,B,F][G,B,F][G,B,F] | C,[G,CE][G,CE][G,CE] | G,,[G,DF][G,DF][G,DF] | C,[G,CE]C, z :: %10
 [C,,C,][G,CE][G,CE][G,CE] | F,[A,DF][A,DF][A,DF] | [G,,G,][G,DF][G,DF][G,DF] | %13
 [C,C][G,CE][G,CE][G,CE] | [C,,C,][G,CE][G,CE][G,CE] | F,[A,DF][A,DF][A,DF] | %16
 [G,,G,][G,CE][G,CE][G,CE] | C,[G,CE]C, z ::[K:F] F,,[F,A,]A,,[F,A,] | B,,[D,G,][D,G,][D,G,] | %20
 C,[E,B,][E,B,][E,B,] | F,,[C,F,A,][C,F,A,][C,F,A,] |[K:F] F,,[F,A,][F,A,][F,A,] | %23
 B,,[D,G,][D,G,][D,G,] | C,[E,B,][E,B,][E,B,] |1 F,[A,C]F, z :|2 F,[A,C]F, z |] %27
[K:C] G,,[G,B,F][G,B,F][G,B,F] | C,[G,CE][G,CE][G,CE] | G,,[G,B,F][G,B,F][G,B,F] | %30
 C,[G,CE][G,CE][G,CE] | G,,[G,B,F][G,B,F][G,B,F] | C,[G,CE][G,CE][G,CE] | G,,[G,DF][G,DF][G,DF] | %34
 C,[G,CE]C, z |] [C,,C,][G,CE][G,CE][G,CE] | F,[A,DF][A,DF][A,DF] | [G,,G,][G,DF][G,DF][G,DF] | %38
 [C,C][G,CE][G,CE][G,CE] | [C,,C,][G,CE][G,CE][G,CE] | %40
"_New Year's Schottish, 722-2" F,[A,DF][A,DF][A,DF] | [G,,G,][G,CE][G,CE][G,CE] | C,[G,CE]C, z |] %43
V:3
 [C,,C,]/[C,,C,]/[C,,C,] [F,,C,]/[F,,C,]/[F,,C,] | [C,,C,] x3 |] x4 | x4 | x4 | x4 | x4 | x4 | x4 | %9
 x4 :: x4 | x4 | x4 | x4 | x4 | x4 | x4 | x4 ::[K:F] x4 | x4 | x4 | x4 |[K:F] x4 | x4 | x4 |1 %25
 x4 :|2 x4 |][K:C] x4 | x4 | x4 | x4 | x4 | x4 | x4 | x4 |] x4 | x4 | x4 | x4 | x4 | x4 | x4 | %42
 x4 |] %43

